X:24
T:Put in All (1719-20)
C:Lyrics by Thomas D'Urfey
B:Wit and Mirth, or Pills to Purge Melancholy 1719-20
S:New York Folklore Library Edn. Facsimile 1959
N:compare with 31SaCh
H:1876
Q:1/4=120
L:1/4
M:C|
K:Gm
D|DGGA|B2AB|c2BA|B3D|DGGA|
B2AG| D3A|Bcde|f2d2|cBAG|^F3D|
DGGA|B2d^F|G2G^F|G3|]
W:A Young Man and a Maid, put in all, put in all...
